X:1
T:James Gibb editions
T:So ben mi ch'a bon tempo - Vecchi
%%score [ 1 2 3 4 ]
L:1/8
Q:1/4=140
M:2/2
K:G
V:1 treble nm="Soprano"
V:2 treble nm="Alto"
V:3 treble-8 nm="Tenor"
V:4 bass nm="Bass"
V:1
"^So ben mi ch'a bon tempo""^Orazio Vecchi\n(1550-1605)" E2 | E2 F2 G2 A2 | B4 B2 E2 | %3
w: So|ben mi ch'ha bon|tem- po, so|
w: O|s'io po- tes- si|di- re, O|
w: Sa-|lu- ti~~e bac- cia-|ma- ni, sa-|
 E2 F2 G2 A2 | B4 B2 d2 | d4 e4 | f6 ed |[M:2/2] ^c2 B2 c2 c2 | B4 z2 | e2 | e2 e2 ^d2 d2 | %11
w: ben mi ch'ha bon|tem- po. *|||||Al|so- ma bas- ta-|
w: s'io po- tes- si|di- re. Fa|la la|la la la|la la la la|la.|Chi|va, chi sta, chi|
w: lu- ti~~e bac- cia-|ma- ni. *|||||Son|tut- ti~~in- dar- no~~a|
 e4 z2 !courtesy!=d2 | d2 d2 ^c2 c2 | d4 A2 B2 | =c4 B4 | A4 G2 G2 | F2 E2 F2 F2 | E4 z2 :| %18
w: mo, al|so- ma bas- ta-|mo. * *|la la|la la la|la la la la|la.|
w: vien, chi|va, chi sta, chi|vien. Fa la|||||
w: fe, son|tut- ti~~in- dar- no~~a|fè. * *|||||
V:2
 B,2 | B,2 B,2 E2 E2 | ^D4 D2 B,2 | B,2 B,2 E2 E2 | ^D4 D2 F2 | F4 A4 | A6 G2 | %7
w: So|ben mi ch'ha bon|tem- po, so|ben mi ch'ha bon|tem- po. *|||
w: O|s'io po- tes- si|di- re, O|s'io po- tes- si|di- re. Fa|la la|la la|
w: Sa-|lu- ti~~e bac- cia-|ma- ni, sa-|lu- ti~~e bac- cia-|ma- ni. *|||
[M:2/2] A2 D2 F2 F2 | F4 z2 | G2 | E2 E2 A2 A2 | ^G4 z2 =G2 | G2 G2 A2 A2 | B2 B2 F2 G2 | %14
w: ||Al|so ma bas- ta|mo, al|so ma bas- ta|mo, * * *|
w: la la la la|la.|Chi|va, chi sta, chi|vien, chi|va, chi sta, chi|vien. Fa la la|
w: ||Son|tut- ti~~in- dar- no~~a|fe, son|tut- ti~~in- dar- no~~a|fè. * * *|
 A2 GA D2 D2- | D2 D2 B,3 C | D2 E2 E2 ^D2 | E4 z2 :| %18
w: la la la la la|* la la la|la la la la|la.|
w: ||||
w: ||||
V:3
 G2 | G2 F2 E2 E2 | F4 F2 G2 | G2 F2 E2 E2 | F4 F2 B2 | !courtesy!=d4 ^c4 | d6 B2 | %7
w: So|ben mi ch'ha bon|tem- po, so|ben mi ch'ha bon|tem- po. *|||
w: O|s'io po- tes- si|di- re, O|s'io po- tes- si|di- re. Fa|la la|la la|
w: Sa-|lu- ti~~e bac- cia-|ma- ni, sa-|lu- ti~~e bac- cia-|ma- ni. *|||
[M:2/2][K:treble-8] f2 B2 B2 ^A2 | B4 z2 | B2 | ^c2 c2 A2 A2 | B4 z2 B2 | d2 d2 e2 e2 | g4 z4 | %14
w: ||Al|so ma bas- ta|mo, al|so ma bas- ta|mo.|
w: la la la la|la.|Chi|va, chi sta, chi|vien, chi|va, chi sta, chi|vien.|
w: ||Son|tut- ti~~in- dar- no~~a|fe, son|tut- ti~~in- dar- no~~a|fè.|
 e2 f2 g4 | f4 e4 | d2 G2 B2 B2 | B4 z2 :| %18
w: Fa la la|la la|la la la la|la.|
w: ||||
w: ||||
V:4
 E,2 | E,2 ^D,2 E,2 C,2 | B,,4 B,,2 E,2 | E,2 ^D,2 E,2 C,2 | B,,4 B,,2 B,2 | B,4 A,4 | D,6 E,2 | %7
w: So|ben mi ch'ha bon|tem- po, so|ben mi ch'ha bon|tem- po. *|||
w: O|s'io po- tes- si|di- re, O|s'io po- tes- si|di- re. Fa|la la|la la|
w: Sa-|lu- ti~~e bac- cia-|ma- ni, sa-|lu- ti~~e bac- cia-|ma- ni. *|||
[M:2/2] F,2 G,2 F,2 F,2 | B,,4 z2 | E,2 | A,2 A,2 F,2 F,2 | E,4 z2 !courtesy!=G,2 | %12
w: ||Al|so ma bas- ta|mo, al|
w: la la la la|la.|Chi|va, chi sta, chi|vien, chi|
w: ||Son|tut- ti~~in- dar- no~~a|fe, son|
 G,2 B,2 A,2 A,2 | G,2 G,,2 D,2 =C,B,, | A,,2 A,,2 G,,2 G,2 | D,4 E,2 D,C, | B,,2 C,2 B,,2 B,,2 | %17
w: so ma bas- ta|mo, * * * *|la la la la|la la la la|la la la la|
w: va, chi sta, chi|vien. Fa la la la||||
w: tut- ti~~in- dar- no~~a|fè. * * * *||||
 E,4 z2 :| %18
w: la.|
w: |
w: |

